F[ERK3
CUT[IM KUMME DAHEA VON ESTAREI]
REG[Europa, Mitteleuropa, Oesterreich, Salzburg]
KEY[E1070  16  C 6/8]
MEL[-5_  1__1_1__1_  1_-7_-6_-5__
    -5_  -6_-6_-6_1_.-7-6_  -6_-5_-5_-5__
    -5_  1__1_2_.34_  -5_.-6-7_1__ //] >>
FCT[Wett - Lied, Streit zwischen Sommer und Winter]
